packages/icons/raw/imported/FilesSave.svg

<svg width="32" height="32" viewBox="0 0 32 32" fill="none" xmlns="http://www.w3.org/2000/svg">
<path d="M12.1154 9.42305C12.1154 9.14691 11.8915 8.92305 11.6154 8.92305C11.3392 8.92305 11.1154 9.14691 11.1154 9.42305H12.1154ZM11.1154 11.6154C11.1154 11.8915 11.3392 12.1154 11.6154 12.1154C11.8915 12.1154 12.1154 11.8915 12.1154 11.6154H11.1154ZM10.5 25.5V25V25.5ZM21.5 25.5V26V25.5ZM6.5 10.5H7H6.5ZM6.5 21.5H6H6.5ZM10.5 6.50001L10.5 6.00001L10.5 6.50001ZM19.4585 6.5L19.4585 6L19.4585 6.5ZM25.5 12.5415H26H25.5ZM25.5 21.5H25H25.5ZM22.287 7.67157L21.9334 8.02512V8.02512L22.287 7.67157ZM24.3284 9.71302L24.682 9.35946V9.35946L24.3284 9.71302ZM19.1538 18.1923C19.1538 19.9341 17.7418 21.3461 16 21.3461V22.3461C18.2941 22.3461 20.1538 20.4864 20.1538 18.1923H19.1538ZM16 21.3461C14.2582 21.3461 12.8462 19.9341 12.8462 18.1923H11.8462C11.8462 20.4864 13.7059 22.3461 16 22.3461V21.3461ZM12.8462 18.1923C12.8462 16.4505 14.2582 15.0384 16 15.0384V14.0384C13.7059 14.0384 11.8462 15.8982 11.8462 18.1923H12.8462ZM16 15.0384C17.7418 15.0384 19.1538 16.4505 19.1538 18.1923H20.1538C20.1538 15.8982 18.2941 14.0384 16 14.0384V15.0384ZM11.1154 9.42305V11.6154H12.1154V9.42305H11.1154ZM10.5 26L21.5 26V25L10.5 25V26ZM6 10.5L6 21.5H7L7 10.5H6ZM10.5 7.00001L19.4585 7L19.4585 6L10.5 6.00001L10.5 7.00001ZM25 12.5415V21.5H26V12.5415H25ZM21.9334 8.02512L23.9749 10.0666L24.682 9.35946L22.6405 7.31801L21.9334 8.02512ZM26 12.5415C26 11.348 25.5259 10.2034 24.682 9.35946L23.9749 10.0666C24.6312 10.7229 25 11.6132 25 12.5415H26ZM19.4585 7C20.3868 7 21.277 7.36875 21.9334 8.02512L22.6405 7.31801C21.7966 6.4741 20.652 6 19.4585 6L19.4585 7ZM7 10.5C7 8.56702 8.567 7.00002 10.5 7.00001L10.5 6.00001C8.01472 6.00002 6 8.01473 6 10.5H7ZM21.5 26C23.9853 26 26 23.9853 26 21.5H25C25 23.433 23.433 25 21.5 25V26ZM10.5 25C8.567 25 7 23.433 7 21.5H6C6 23.9853 8.01472 26 10.5 26V25Z" fill="black"/>
</svg>

<svg width="32" height="32" fill="none" xmlns="http://www.w3.org/2000/svg"><path d="M12.115 9.423a.5.5 0 0 0-1 0h1Zm-1 2.192a.5.5 0 1 0 1 0h-1ZM10.5 25.5V25v.5Zm11 0v.5-.5Zm-15-15H7h-.5Zm0 11H6h.5Zm4-15V6v.5Zm8.959 0V6v.5Zm6.041 6.041h.5-.5Zm0 8.959H25h.5ZM22.287 7.672l-.354.353.354-.353Zm2.041 2.041.354-.354-.354.354Zm-5.174 8.48A3.154 3.154 0 0 1 16 21.345v1a4.154 4.154 0 0 0 4.154-4.154h-1ZM16 21.345a3.154 3.154 0 0 1-3.154-3.154h-1A4.154 4.154 0 0 0 16 22.346v-1Zm-3.154-3.154A3.154 3.154 0 0 1 16 15.038v-1a4.154 4.154 0 0 0-4.154 4.154h1ZM16 15.038a3.154 3.154 0 0 1 3.154 3.154h1A4.154 4.154 0 0 0 16 14.038v1Zm-4.885-5.615v2.192h1V9.423h-1ZM10.5 26h11v-1h-11v1ZM6 10.5v11h1v-11H6ZM10.5 7h8.959V6H10.5v1ZM25 12.541V21.5h1v-8.959h-1Zm-3.067-4.516 2.042 2.042.707-.708-2.041-2.041-.708.707ZM26 12.541a4.5 4.5 0 0 0-1.318-3.182l-.707.708A3.5 3.5 0 0 1 25 12.54h1ZM19.459 7a3.5 3.5 0 0 1 2.474 1.025l.707-.707A4.5 4.5 0 0 0 19.46 6v1ZM7 10.5A3.5 3.5 0 0 1 10.5 7V6A4.5 4.5 0 0 0 6 10.5h1ZM21.5 26a4.5 4.5 0 0 0 4.5-4.5h-1a3.5 3.5 0 0 1-3.5 3.5v1Zm-11-1A3.5 3.5 0 0 1 7 21.5H6a4.5 4.5 0 0 0 4.5 4.5v-1Z" fill="#000"/></svg>
